usr/share/icons/biglinux-icons-material/16/actions/tools-rip-audio-cd.svg

<svg xmlns="http://www.w3.org/2000/svg" viewBox="0 0 16 16">
  <defs id="defs3051">
    <style type="text/css" id="current-color-scheme">
      .ColorScheme-Text {
        color:#363636;
      }
      </style>
  </defs>
 <path style="fill:currentColor;fill-opacity:1;stroke:none" 
     d="M 8 2 A 6 6.0000086 0 0 0 2 8 A 6 6.0000086 0 0 0 8 14 L 8 13 A 5 5 0 0 1 3 8 A 5 5 0 0 1 8 3 A 5 5 0 0 1 12.572266 6 L 13.644531 6 A 6 6.0000086 0 0 0 8 2 z M 8 4 C 5.790861 4 4 5.790861 4 8 L 6 8 C 6 6.8954305 6.8954305 6 8 6 L 8 4 z M 8 7 A 1 1 0 0 0 7 8 A 1 1 0 0 0 8 9 A 1 1 0 0 0 9 8 A 1 1 0 0 0 8 7 z M 12 7 L 12 10.269531 A 1.9999913 1.9999913 0 0 0 11 10 A 1.9999913 1.9999913 0 0 0 9 12 A 1.9999913 1.9999913 0 0 0 11 14 A 1.9999913 1.9999913 0 0 0 13 12 L 13 8 L 14 8 L 13 7 L 12 7 z "
     class="ColorScheme-Text"
     />
</svg>

<svg xmlns="http://www.w3.org/2000/svg" viewBox="0 0 16 16"><path d="M8 2a6 6 0 0 0-6 6 6 6 0 0 0 6 6v-1a5 5 0 0 1-5-5 5 5 0 0 1 5-5 5 5 0 0 1 4.572 3h1.073A6 6 0 0 0 8 2zm0 2a4 4 0 0 0-4 4h2a2 2 0 0 1 2-2V4zm0 3a1 1 0 0 0-1 1 1 1 0 0 0 1 1 1 1 0 0 0 1-1 1 1 0 0 0-1-1zm4 0v3.27a2 2 0 0 0-1-.27 2 2 0 0 0-2 2 2 2 0 0 0 2 2 2 2 0 0 0 2-2V8h1l-1-1h-1z" style="fill:currentColor;fill-opacity:1;stroke:none;color:#dedede"/></svg>
